src/assets/image/id-card-alt-solid.svg

<svg aria-hidden="true" focusable="false" data-prefix="fas" data-icon="id-card-alt" class="svg-inline--fa fa-id-card-alt fa-w-18" role="img" xmlns="http://www.w3.org/2000/svg" viewBox="0 0 576 512"><path fill="currentColor" d="M528 64H384v96H192V64H48C21.5 64 0 85.5 0 112v352c0 26.5 21.5 48 48 48h480c26.5 0 48-21.5 48-48V112c0-26.5-21.5-48-48-48zM288 224c35.3 0 64 28.7 64 64s-28.7 64-64 64-64-28.7-64-64 28.7-64 64-64zm93.3 224H194.7c-10.4 0-18.8-10-15.6-19.8 8.3-25.6 32.4-44.2 60.9-44.2h8.2c12.3 5.1 25.7 8 39.8 8s27.6-2.9 39.8-8h8.2c28.4 0 52.5 18.5 60.9 44.2 3.2 9.8-5.2 19.8-15.6 19.8zM352 32c0-17.7-14.3-32-32-32h-64c-17.7 0-32 14.3-32 32v96h128V32z"></path></svg>

<svg id="Calque_1" data-name="Calque 1" xmlns="http://www.w3.org/2000/svg" viewBox="0 0 576 512"><defs><style>.cls-1{fill:#ff6a14;}</style></defs><path class="cls-1" d="M528,64H384v96H192V64H48A48,48,0,0,0,0,112V464a48,48,0,0,0,48,48H528a48,48,0,0,0,48-48V112A48,48,0,0,0,528,64ZM288,224a64,64,0,1,1-64,64A64.06,64.06,0,0,1,288,224Zm93.3,224H194.7c-10.4,0-18.8-10-15.6-19.8A64,64,0,0,1,240,384h8.2a103,103,0,0,0,79.6,0H336a64.09,64.09,0,0,1,60.9,44.2C400.1,438,391.7,448,381.3,448ZM352,32A32,32,0,0,0,320,0H256a32,32,0,0,0-32,32v96H352Z" transform="translate(0 0)"/></svg>
